X:312
T:Now Rest Beneath Night's Shadow
%%stretchlast false
M:4/4
L:1/4
K:F clef=C1
"^I"[Fcfa] "^IV"[Bdf]/ "^IVmaj7³"[ABdf]/ "^vii°¹"[GBeg] "^I"[Fcfa]/ "^ii7³"[FBgb]/ | "^I"[FAac']/ "^iii7²"[EGac']/ "^IVmaj7¹"[DFab] "^V7¹"[Ecgb] "^I"[Fcfa] | "^vi"[Ddfa]/ "^IV¹"[Ddfb]/ "^I¹"[A,cfc']/ "^V²"[G,cec']/ "^I¹"[A,cfc']/ "^IV"[B,cdc']/ "^V"[Cceg]/ "^ii¹"[B,cdg]/ | "^iii"[A,Eca] "^vi7"[DFcf]/ [DEcf]/ "^♭v°¹"[DF=Bf] "^V"[CGce] | "^V7³"[B,EGc]/ "^ii¹"[B,DGc]/ "^I¹"[A,Ccf] "^ii"[G,DBg]/ [G,EBg]/ "^I"[F,FAa]/ "^ii"[G,FBa]/ | "^I¹"[A,Fca]/ "^I"[B,Fca]/ "^V"[CEcg]3 | "^V/vi¹"[_DAea] "^vi"[DAdf]/ "^IV¹"[DBdf]/ "^iii7²"[EAcg]/ "^V¹"[EGcg]/ "^I"[Fca]/ "^ii"[FGcb]/ | "^VI7¹"[_GAdc'] "^ii"[Gdb]/ "^iii"[GAcb]/ "^ii"[G,Bdb]/ "^V7²"[G,ceb]/ "^VI"[Dd_ga] | "^vi"[Ddfa]/ "^IV¹"[Ddfb]/ "^V¹"[Ecgc']/ "^V7¹"[EBgc']/ "^I"[FAfc']/ "^Imaj7"[FAec']/ "^II7³"[F=Bdg]/ "^vii7"[E=Bdg]/ | [DEea]/ "^V/vi¹"[_DEea]/ "^vi"[DAef]/ "^I7³"[EAef]/ "^vi¹"[FAdf]/ "^vi"[GAdf]/ "^III"[A_de] | "^iii"[A,Ac] "^vi7"[DAcf]/ "^IV¹"[DBdf]/ "^iii7²"[EAcg]/ [EGBg]/ "^I"[FAa]/ "^Imaj7³"[EFca]/ | "^IV¹"[DFdb]/ "^V"[CFeb]/ "^IVmaj7"[B,dfa] "^V"[CGeg]/ "^iii7¹"[CAeg]/4 "^V7"[CBeg]/4 "^I"[F,Acf] |]
